X:861
T:Reel 861
M:4/4
K:Amin
L:1/8
G^FGB A2GE|DB, (3B,A,G, DB,B,D|E,A,A,2 G2GE|AAGB A2AB|EB,B,B, A,B,EDB,C|DB,EB, DB,G,B,|EA,A,B, CB,CE| (3DE^F GB A2GB|AGBA GED2|GEEF G2AG|EAAG ABAF|GEDB, B,A,A,2|AGBA GEEG|GEE^F G2GA|BAGB AGFA|GEDB, B,A,A,2|
